X:1
T:Auprès de mon arbre
O:G. Brassens
M:4/4
L:1/4
Q:1/4=80
K:C
"C"GG^FF|EE2 C2| G, C E A| G4 |
w: Au- près de mon ar- bre je vi- vais heu- reux
"F"A F d c |"C" E2 B A |"Dm" A,3 F |"G7" E2 D2|
w: j'au- rai ja- mais du m'é- loi- gner d'mon ar- bre
G, C E F| E2 C2 | GCEA| G4 |
w: Au- près de mon ar- bre je vi- vais heu- reux
AFdc | E2 BA |A,B,|C2 Z||
w: j'au- rais ja- mais du le quit- ter des yeux
